gama.ui.shared/icons_svg/dark/experiment/experiment.simulations.save.history.svg

<svg height="25" viewBox="-382.774 -3215.705 25 25" width="25" xmlns="http://www.w3.org/2000/svg"><g fill="none"><path d="m-362.11414-3215.205h-16.32c-2.12076 0-3.84 1.719-3.84 3.84v16.32c0 2.1207 1.71924 3.84 3.84 3.84h16.32c2.12078 0 3.84-1.7193 3.84-3.84v-16.32c0-2.121-1.71922-3.84-3.84-3.84z" fill="#666"/><path d="m-362.11414-3215.205h-16.32c-2.12076 0-3.84 1.719-3.84 3.84v16.32c0 2.1207 1.71924 3.84 3.84 3.84h16.32c2.12078 0 3.84-1.7193 3.84-3.84v-16.32c0-2.121-1.71922-3.84-3.84-3.84z" stroke="#fff" stroke-linecap="round" stroke-linejoin="round" stroke-width=".25"/><path d="m-382.27414-3215.205h24v24h-24z"/><path d="m-370.30562-3200.636v4.1523l-2.08684-2.2508-.63334.6831 3.16668 3.4154 3.16666-3.4154-.63334-.6831-2.08682 2.2508v-4.1523z" fill="#8eed62"/><path d="m-370.30562-3200.636v4.1523l-2.08684-2.2508-.63334.6831 3.16668 3.4154 3.16666-3.4154-.63334-.6831-2.08682 2.2508v-4.1523z" stroke="#528636" stroke-linecap="round" stroke-linejoin="round" stroke-width=".25"/><path d="m-370.12208-3205.323c-2.97425-.3585-4.59437-3.745-2.92692-6.2555 2.3855-3.5945 7.8262-1.5371 7.495 2.8395-.13036 1.7328-1.37094 2.6937-1.68004 4.2602-.72436 3.6681 3.86579 5.4302 5.91802 2.4233 1.39512-2.0448-.06834-4.9171-2.52428-5.0937-.31645-.0221-.87367.1419-.97144-.2692-.11039-.4636.40584-.492.72648-.4909 3.0552.0126 5.04646 3.3138 3.59876 6-2.0575 3.8195-7.924 2.2488-7.56443-2.2005.18819-2.3266 2.41703-3.5399 1.61593-6.122-.89155-2.8702-4.607-3.3369-6.08624-.7348-1.1691 2.0564.21344 4.6564 2.55897 4.8971-.16823-.3448-.51726-.6518-.69809-.9798-.22289-.4037.25652-.8474.64866-.4174.42686.4687.7738 1.0955 1.2143 1.5677.10936.1975.0568.4036-.06517.5823-.56667.3269-1.13123.9777-1.68633 1.2807-.3186.1733-.71914-.1116-.54882-.467.11775-.246.96932-.757.97775-.82z" fill="#c0e0ff"/><path d="m-376.56156-3194.636c-1.65599 0-2.99998-1.344-2.99998-3s1.34399-3 2.99998-3 2.99998 1.344 2.99998 3-1.34399 3-2.99998 3zm0-.3c1.49099 0 2.69999-1.209 2.69999-2.7s-1.209-2.7-2.69999-2.7-2.69998 1.209-2.69998 2.7 1.20899 2.7 2.69998 2.7zm1.137-2.073c.066.048.084.141.036.21-.048.066-.141.084-.21.036l-1.05-.75c-.027-.021-.048-.048-.057-.084l-.44999-1.65c-.021-.081.024-.162.105-.183s.162.024.183.105l.43499 1.599 1.008.72z" fill="#c0e0ff"/><path d="m-376.56156-3194.636c-1.65599 0-2.99998-1.344-2.99998-3s1.34399-3 2.99998-3 2.99998 1.344 2.99998 3-1.34399 3-2.99998 3zm0-.3c1.49099 0 2.69999-1.209 2.69999-2.7s-1.209-2.7-2.69999-2.7-2.69998 1.209-2.69998 2.7 1.20899 2.7 2.69998 2.7zm1.137-2.073c.066.048.084.141.036.21-.048.066-.141.084-.21.036l-1.05-.75c-.027-.021-.048-.048-.057-.084l-.44999-1.65c-.021-.081.024-.162.105-.183s.162.024.183.105l.43499 1.599 1.008.72z" stroke="#c0e0ff" stroke-linejoin="round" stroke-width=".25"/></g></svg>

<?xml version="1.0" encoding="UTF-8" standalone="no"?>
<!DOCTYPE svg PUBLIC "-//W3C//DTD SVG 1.1//EN" "http://www.w3.org/Graphics/SVG/1.1/DTD/svg11.dtd">
<svg xmlns="http://www.w3.org/2000/svg" xmlns:xl="http://www.w3.org/1999/xlink" version="1.1" xmlns:dc="http://purl.org/dc/elements/1.1/" viewBox="-382.77414 -3215.705 25 25" width="25" height="25">
  <defs/>
  <g id="SOURCES" stroke-opacity="1" fill="none" stroke="none" fill-opacity="1" stroke-dasharray="none">
    <title>SOURCES</title>
    <g id="SOURCES_Dark">
      <title>Dark</title>
      <g id="Graphic_10878">
        <path d="M -362.11414 -3215.205 L -378.43414 -3215.205 C -380.5549 -3215.205 -382.27414 -3213.486 -382.27414 -3211.365 L -382.27414 -3195.045 C -382.27414 -3192.9243 -380.5549 -3191.205 -378.43414 -3191.205 L -362.11414 -3191.205 C -359.99336 -3191.205 -358.27414 -3192.9243 -358.27414 -3195.045 L -358.27414 -3211.365 C -358.27414 -3213.486 -359.99336 -3215.205 -362.11414 -3215.205 Z" fill="#666"/>
        <path d="M -362.11414 -3215.205 L -378.43414 -3215.205 C -380.5549 -3215.205 -382.27414 -3213.486 -382.27414 -3211.365 L -382.27414 -3195.045 C -382.27414 -3192.9243 -380.5549 -3191.205 -378.43414 -3191.205 L -362.11414 -3191.205 C -359.99336 -3191.205 -358.27414 -3192.9243 -358.27414 -3195.045 L -358.27414 -3211.365 C -358.27414 -3213.486 -359.99336 -3215.205 -362.11414 -3215.205 Z" stroke="white" stroke-linecap="round" stroke-linejoin="round" stroke-width=".25"/>
      </g>
      <g id="Graphic_10877">
        <rect x="-382.27414" y="-3215.205" width="24" height="24" stroke="gray" stroke-opacity="0" stroke-linecap="round" stroke-linejoin="round" stroke-width=".25"/>
      </g>
      <g id="Graphic_10875">
        <path d="M -370.30562 -3200.636 L -370.30562 -3196.4837 L -372.39246 -3198.7345 L -373.0258 -3198.0514 L -369.85912 -3194.636 L -366.69246 -3198.0514 L -367.3258 -3198.7345 L -369.41262 -3196.4837 L -369.41262 -3200.636 Z" fill="#8eed62"/>
        <path d="M -370.30562 -3200.636 L -370.30562 -3196.4837 L -372.39246 -3198.7345 L -373.0258 -3198.0514 L -369.85912 -3194.636 L -366.69246 -3198.0514 L -367.3258 -3198.7345 L -369.41262 -3196.4837 L -369.41262 -3200.636 Z" stroke="#528636" stroke-linecap="round" stroke-linejoin="round" stroke-width=".25"/>
      </g>
      <g id="Graphic_10874">
        <path d="M -370.12208 -3205.323 C -373.09633 -3205.6815 -374.71645 -3209.068 -373.049 -3211.5785 C -370.6635 -3215.173 -365.2228 -3213.1156 -365.554 -3208.739 C -365.68436 -3207.0062 -366.92494 -3206.0453 -367.23404 -3204.4788 C -367.9584 -3200.8107 -363.36825 -3199.0486 -361.31602 -3202.0555 C -359.9209 -3204.1003 -361.38436 -3206.9726 -363.8403 -3207.1492 C -364.15675 -3207.1713 -364.71397 -3207.0073 -364.81174 -3207.4184 C -364.92213 -3207.882 -364.4059 -3207.9104 -364.08526 -3207.9093 C -361.03006 -3207.8967 -359.0388 -3204.5955 -360.4865 -3201.9093 C -362.544 -3198.0898 -368.4105 -3199.6605 -368.05093 -3204.1098 C -367.86274 -3206.4364 -365.6339 -3207.6497 -366.435 -3210.2318 C -367.32655 -3213.102 -371.042 -3213.5687 -372.52124 -3210.9666 C -373.69034 -3208.9102 -372.3078 -3206.3102 -369.96227 -3206.0695 C -370.1305 -3206.4143 -370.47953 -3206.7213 -370.66036 -3207.0493 C -370.88325 -3207.453 -370.40384 -3207.8967 -370.0117 -3207.4667 C -369.58484 -3206.998 -369.2379 -3206.3712 -368.7974 -3205.899 C -368.68804 -3205.7015 -368.7406 -3205.4954 -368.86257 -3205.3167 C -369.42924 -3204.9898 -369.9938 -3204.339 -370.5489 -3204.036 C -370.8675 -3203.8627 -371.26804 -3204.1476 -371.09772 -3204.503 C -370.97997 -3204.749 -370.1284 -3205.26 -370.11997 -3205.323 Z" fill="#c0e0ff"/>
      </g>
      <g id="Graphic_10873">
        <path d="M -376.56156 -3194.636 C -378.21755 -3194.636 -379.56154 -3195.98 -379.56154 -3197.636 C -379.56154 -3199.292 -378.21755 -3200.636 -376.56156 -3200.636 C -374.90557 -3200.636 -373.56158 -3199.292 -373.56158 -3197.636 C -373.56158 -3195.98 -374.90557 -3194.636 -376.56156 -3194.636 Z M -376.56156 -3194.936 C -375.07057 -3194.936 -373.86157 -3196.145 -373.86157 -3197.636 C -373.86157 -3199.127 -375.07057 -3200.336 -376.56156 -3200.336 C -378.05255 -3200.336 -379.26154 -3199.127 -379.26154 -3197.636 C -379.26154 -3196.145 -378.05255 -3194.936 -376.56156 -3194.936 Z M -375.42456 -3197.009 C -375.35856 -3196.961 -375.34056 -3196.868 -375.38856 -3196.799 C -375.43656 -3196.733 -375.52956 -3196.715 -375.59856 -3196.763 L -376.64856 -3197.513 C -376.67556 -3197.534 -376.69656 -3197.561 -376.70556 -3197.597 L -377.15555 -3199.247 C -377.17655 -3199.328 -377.13155 -3199.409 -377.05055 -3199.43 C -376.96955 -3199.451 -376.88855 -3199.406 -376.86755 -3199.325 L -376.43256 -3197.726 L -375.42456 -3197.006 Z" fill="#c0e0ff"/>
        <path d="M -376.56156 -3194.636 C -378.21755 -3194.636 -379.56154 -3195.98 -379.56154 -3197.636 C -379.56154 -3199.292 -378.21755 -3200.636 -376.56156 -3200.636 C -374.90557 -3200.636 -373.56158 -3199.292 -373.56158 -3197.636 C -373.56158 -3195.98 -374.90557 -3194.636 -376.56156 -3194.636 Z M -376.56156 -3194.936 C -375.07057 -3194.936 -373.86157 -3196.145 -373.86157 -3197.636 C -373.86157 -3199.127 -375.07057 -3200.336 -376.56156 -3200.336 C -378.05255 -3200.336 -379.26154 -3199.127 -379.26154 -3197.636 C -379.26154 -3196.145 -378.05255 -3194.936 -376.56156 -3194.936 Z M -375.42456 -3197.009 C -375.35856 -3196.961 -375.34056 -3196.868 -375.38856 -3196.799 C -375.43656 -3196.733 -375.52956 -3196.715 -375.59856 -3196.763 L -376.64856 -3197.513 C -376.67556 -3197.534 -376.69656 -3197.561 -376.70556 -3197.597 L -377.15555 -3199.247 C -377.17655 -3199.328 -377.13155 -3199.409 -377.05055 -3199.43 C -376.96955 -3199.451 -376.88855 -3199.406 -376.86755 -3199.325 L -376.43256 -3197.726 L -375.42456 -3197.006 Z" stroke="#c0e0ff" stroke-linecap="butt" stroke-linejoin="round" stroke-width=".25"/>
      </g>
    </g>
  </g>
</svg>
